X: 11015
T: CECIL'S JIG
C: Bob McQuillen 1 Oct 96
B: Bob's Note Book 11 #15
R: jig
Z: 2020 John Chambers <jc:trillian.mit.edu>
M: 6/8
L: 1/8
K: D
D2E \
| F2E DFG | A2G F2A | d2A d2e | fef def |\
| g2f efg | a2f def | gag fed | Bed cBA |
| FEF D2F | A2G FAB | dBd Ade | f2d A2d |\
| B2G EFG | A2F DEF | EFG ABc | d3 ||
|: c2d \
| efe ede | f2d A2g | fed cBA | GAB A2G |\
| F2E DFA | Bcd A2g | fed edc | d3 :|
%%begintext align
%% In the town of Deerfield (NH), in a little cabin in the woods
%% surrounded by pretty flowers, there lives a woman named Denna Stiles. We
%% play music together (she's the wonderful flute - fiddle - piccolo player in
%% our band "Old New England"), and she used to have a nice orange kitty
%% named Cecil. She taught him to dance: She would take him by his paws
%% and around the cabin they'd go! Cecil's in Cat Heaven now - I hope this tune
%% brings you happy memories, Deanna, with love frm Bob.
%%endtext

%%sep 1 1 500

%%sep 1 1 500

